brandFactory_export/3.Masa/Ubicacion mapa _3Masa.svg

<?xml version="1.0" encoding="UTF-8"?>
<svg width="24px" height="24px" viewBox="0 0 24 24" version="1.1" xmlns="http://www.w3.org/2000/svg" xmlns:xlink="http://www.w3.org/1999/xlink">
    <title>3.Masa/Ubicacion mapa _3Masa</title>
    <g id="Symbols" stroke="none" stroke-width="1" fill="none" fill-rule="evenodd">
        <g id="3.Masa/Ubicacion-mapa-_3Masa" fill="#5CB615" fill-rule="nonzero">
            <path d="M18.2890756,20.097479 L17.492437,15.4554622 L19.7277311,14.3394958 L21.8184874,21.6504202 L18.2890756,20.097479 L18.2890756,20.097479 Z M12.5747899,21.8621849 L12.5915966,19.4285714 C13.1630252,18.789916 14.3831933,17.3008403 15.6168067,15.4621849 L16.0537815,15.6033613 L16.8302521,20.1546218 L12.5747899,21.8621849 Z M11.8857143,8.38319328 C10.8168067,8.38319328 10.3193277,7.88571429 10.3193277,6.81680672 C10.3193277,5.74789916 10.8168067,5.25042017 11.8857143,5.25042017 C12.9546218,5.25042017 13.4521178,5.74789916 13.4521178,6.81680672 C13.4554622,7.88235294 12.9579832,8.38319328 11.8857143,8.38319328 Z M11.1260504,21.8823529 L6.87394958,20.1378151 L7.39831933,15.5428571 L8.01680672,15.3613445 C9.24033613,17.2302521 10.4773109,18.7731092 11.1428571,19.4890756 L11.1260504,21.8823529 Z M5.42184874,20.1176471 L1.91932773,21.6403361 L4.20840336,14.3731092 L5.9697479,15.3680672 L5.42184874,20.1176471 L5.42184874,20.1176471 Z M23.6302521,22.7327731 L20.8773109,13.102521 C20.8201681,12.8941176 20.6689076,12.7260504 20.4739496,12.6386555 C20.2789916,12.5512605 20.0504202,12.5579832 19.8588235,12.6521008 L16.6252101,14.2655462 L16.4235294,14.2016807 C17.8218487,11.9193277 19.0319328,9.33109244 19.0386555,7.22352941 C19.0521008,2.73277311 16.3798319,0.043697479 11.8890756,0.0302521008 L11.8554622,0.0302521008 C7.38487395,0.0302521008 4.7092437,2.70252101 4.69243697,7.18319328 C4.68571429,9.20672269 5.8487395,11.7781513 7.22016807,14.0806723 L6.83361345,14.1915966 L4.14117647,12.6689076 C3.95294118,12.5613445 3.72436975,12.5478992 3.51932773,12.6252101 C3.31764706,12.7058824 3.15966387,12.8705882 3.09579832,13.0789916 L0.0638655462,22.7092437 C-0.0201680672,22.9815126 0.0605042017,23.2739496 0.268907563,23.4655462 C0.480672269,23.6571429 0.783193277,23.7042017 1.04201681,23.5932773 L6.11764706,21.3882353 L11.4319328,23.5663866 C11.4655462,23.5798319 11.502521,23.5932773 11.5394958,23.6 L11.6739496,23.6302521 C11.8184874,23.6672269 11.9697479,23.6537815 12.1109244,23.6 L17.6369748,21.3882353 L22.6386555,23.5932773 C22.7327731,23.6336134 22.8302521,23.6537815 22.9310924,23.6537815 C23.102521,23.6537815 23.2739496,23.5932773 23.4084034,23.4756303 C23.6201681,23.2941176 23.707563,23.005042 23.6302521,22.7327731 Z" id="Ubicacion-mapa-_3Masa"></path>
        </g>
    </g>
</svg>

<svg width="24" height="24" viewBox="0 0 24 24" xmlns="http://www.w3.org/2000/svg"><path d="M18.29 20.097l-.798-4.642 2.236-1.116 2.09 7.311-3.529-1.553zm-5.715 1.765l.017-2.433c.571-.64 1.791-2.128 3.025-3.967l.437.141.776 4.552-4.255 1.707zm-.69-13.479c-1.068 0-1.566-.497-1.566-1.566 0-1.07.498-1.567 1.567-1.567s1.566.498 1.566 1.567c.003 1.065-.494 1.566-1.566 1.566zm-.759 13.5l-4.252-1.745.524-4.595.619-.182c1.223 1.87 2.46 3.412 3.126 4.128l-.017 2.393zm-5.704-1.765L1.919 21.64l2.29-7.267 1.76.995-.547 4.75zm18.208 2.615l-2.753-9.63a.721.721 0 00-1.018-.45l-3.234 1.613-.201-.064c1.398-2.283 2.608-4.87 2.615-6.978.013-4.491-2.66-7.18-7.15-7.194h-.034c-4.47 0-7.146 2.673-7.163 7.153-.006 2.024 1.157 4.595 2.528 6.898l-.386.11L4.14 12.67a.733.733 0 00-.622-.044.719.719 0 00-.423.454l-3.032 9.63a.726.726 0 00.978.884l5.076-2.205 5.314 2.178c.034.014.07.027.107.034l.135.03a.722.722 0 00.437-.03l5.526-2.212 5.002 2.205a.735.735 0 00.77-.117c.211-.182.299-.471.221-.743z" fill="#5CB615" fill-rule="nonzero"/></svg>
